!! 00015] TT[TB
!! Zh. Ch. 1-1577, NN), J 3443)
!!!OTL: Dui hua I
!!!ARE: Asia, China,ÿAnhui, Komposition
!! Ethnic Group: Han
!! MM,
!!!SCT: C0685A
!!!YEM: Copyright 1995, estate of Helmut Schaffrath.
**kern
*ICvox
*Ivox
*M2/4
*k[b-e-]
*B-:
{8fff
8fff
8ccc
8fff
=1
8ddd
16ddd
16ccc
4bb-}
=2
{16ddd
8ddd
16ddd
8bb-
8ccc
=3
8ddd
8bb-
8ccc
8r}
=4
{8ccc
16ddd
16fff
16ggg
16fff
16ddd
16ccc
=5
8bb-
16ccc
16ddd
16ccc
16bb-
8gg
=6
2ff}
=7
{8.fff
16ddd
8fff
8ddd
=8
8.ccc
16ddd
4bb-}
=9
{8ddd
16ddd
16ccc
8bb-
8ccc
=10
8gg
4.ff}
=11
{16fff
16ggg
16fff
16ddd
8ccc
16ddd
16fff
=12
8ddd
16ddd
16ccc
4bb-}
=13
{8gg
16gg
16bb-
8ccc
16bb-
16ccc
=14
8gg
4.ff}
=15
{8ddd
16ddd
16ccc
8bb-
16bb-
16gg
=16
8ff
4.gg}
=17
{8.bb-
16bb-
8dd
8ff
=18
2gg}
=19
{8bb-
16bb-
16ccc
16bb-
16ccc
16bb-
16gg
=20
2ff}
=21
{16.fff
32ggg
16fff
16ddd
8ccc
16ddd
16fff
=22
8ddd
16ddd
16ccc
4bb-}
=23
{8.ddd
16ccc
8bb-
8ff
=24
8gg
8gg
8r}
{8ff
=25
8gg
8gg
8r}
{8ff
=26
8gg
8gg
8r}
{8ff
=27
8.ccc
16ddd
16ccc
16bb-
8gg
=28
4ff}
{8gg
8ff
=29
8ff
8dd
8ff
8r
=30
16gg
16ff
8gg
8r
8bb-
=31
8ccc
16r
16ddd
16ccc
16bb-
8gg
=32
2ff}
==
!!!AGN: Xiaodiao. Huangmeixi xuanduan
!! Kopie der Noten.
!!    Diese Sammlung enthaelt mit Stand 1987 wenigstens 32 Aufnahmen
!!    mit dem Titel "Dui hua"
!!    +++Dieses Lied wurde GETEILT!!! Der zweite Teil ist im folgenden
!!    Dokument unter gleicher Signatur B kodiert. +++ Ein- bis zweistimmig.
!!    Ergaenzungen: Oktavierungspunkte: T.3,2, +2__);T.6,1, +2_);Punktierungen:
!!    T.10,1, +5__.); T.24,1, +5_.+6).
!!!ONB: ESAC (Essen Associative Code) Database: CHINA
!!!AMT: simple duple
!!!AIN: vox
!!!EED: Helmut Schaffrath
!!!EEV: 1.0
*-
